X:1
T:75th Anniversary March
M:C
L:1/8
Q:80
C:Composed by T. Tully
S:March
K:HP
[| {g}A3/2B/2 | \
{GdG}c3e{g}f2{gef}ec | \
{g}A2{d}B2{GdG}c2{g}A3/2B/2 |
{GdG}cf{gef}ec{g}A2{d}c2 | \
{g}B4{GdGe}B2{g}A3/2B/2 | \
{GdG}c3e{g}f2{gef}ec |
{g}A2{d}B2{GdG}c2{g}A3/2B/2 | \
{GdG}cf{gef}ec{g}A2{GdG}B2 | \
{G}A4{GAG}A2|] [ |
{g}c3/2d/2 | \
{gef}e3a{fg}f2{g}c3/2d/2 | \
{g}e3/2f/2{gef}ed{gcd}c2{g}A3/2B/2 |
{GdG}cf{gef}ec{g}A2{d}c2 | \
{g}B4{GdGe}B2{g}c3/2B/2 | | \
{G}A3{d}B{G}A3{d}B |
{GdG}c2{g}f2{gef}e2{g}A3/2B/2 | \
{GdG}cf{gef}ec{g}A2{GdG}B2 | \
{G}A4{GAG}A2|]
